X: 34370
T: Reverend Penberthy's Trombone, The
R: jig
M: 6/8
K: Amajor
|:AeA eca|cac dfe|AeA eca|ace Bec|
AeA eca|cac dfe|AaA fAa|eBe A2a:|
|:AcA BAc|AfA eAf|AaA fAa|ece B2a|
AcA BAc|AfA eAf|AaA fAa|eBe A2a:|

